X: 20
T: Wild Mountain Thyme   [D,w]
C: trad.
R: air, waltz
Z: 2021 John Chambers <jc:trillian.mit.edu>
S: Clare Hurley's handout for the Belmont Porchfest has all the notes the same as this, but a few different chords.
M: 3/4
L: 1/8
K: D
% %continueall
% = = = = = = = = = =
"^Verse:"\
DB, | "D"A,2B, "G"D2D | "D"DD2 zFA | "G"B2-B B2A | "D"FA2 zFA |
w: 1.~O the sum-mer time is com-ing, and the trees are sweet-ly bloom-ing, and the
w: 2.~I will build my love a tow-er near yon pure_ crys-tal foun-tain, and_
w: 3.~If my true love, she were gone,_ I would sure-ly find an-oth-er, where the
     "G"B2-B "D/F#"A2F | "Em"(ED2) zEF | "G"G2F E2D | B,D2 |]
w: 1.~wild_ moun-tain thyme_ grows a-round the bloom-ing heath-er.
w: 2.~on it I will pile_ all the flow-ers of the moun-tain.
w: 3.~wild_ moun-tain thyme_ grows a-round the bloom-ing heath-er.
% = = = = = = = = = =
"Chorus:"\
 zDB, | "D"(A,2B,) "G"DD2 | "D"D3 zFA | "G"B3 B2A | "D"FA2 zFA | "G"B3 "D/F#"A2F |
w: Will ye go,_ las-sie, go? And we'll all go to-geth-er to pluck wild moun-tain
%
"Em"(ED2) zEF | "G"G2F E2D | B,D2 "^Intro:"zDB, | "D"(A,2B,) "G"DD2 | "D"D3 z |]
w: thyme_ all a- round the bloom-ing heath-er. Will ye go_ las-sie, go?
% = = = = = = = = = =
% %begintext
% %    Singers take lead
% % 1st time: Voices + Darlene on guitar
% % 2nd: add bass
% % 3rd: add flute
% % 4th: repeat 1st verse, flute drops out
% %    Repeat chorus a second time, voices only
% %endtext

%%sep 2 1 500
%%sep 1 1 500

